X:5
T:Mazurka de Gascogne
R:mazurka
O:France
M:3/4
L:1/4
Q:1/4=180
K:C
G|:ee/2d/2 e/2f/2|eeG|e e/2d/2 e/2f/2|d2G|d d/2c/2 d/2e/2|
ddG|d d/2c/2 d/2e/2|c2e/2f/2|gga/2g/2|ffd/2e/2|ffg/2f/2|
e2c/2d/2|ee/2d/2 e/2f/2|ddG|dd/2c/2 d/2e/2|c2G:|
